X: 0
T: Welwyn
Z: Alfred Scott-Gatty, 1902
Z: Public  domain
L: 1/4
M: 4/4
Q: 1/4=112
V: P1 name="Unnamed-000"
%%MIDI program 1 19
V: P2 name="Welwyn"
%%MIDI program 2 19
V: P3 name="Welwyn-2"
%%MIDI program 3 19
K: F
[V: P1]  [C2A2] [CG] [C/F/]=B,/ | [C3E3] [CF] | [DG] [DB] [DA] [DG] | [C2F2] [C2E2] | [C2F2] [Dd] [Ed] | [F3c3] F | [EB] [Ec] [CA] [D/c/]B/ | [F2A2] [E2G2] | [C2A2] [B,C] [A,C] | [C2D2] [B,E] [A,F] | [B,B] [CA] [DG] [DF] | [F2A2] [E2G2] | [F2c2] [EB] [FA] | [F2d2] E [Fc] | [FB] [FA] [FG] [EA] | F4|]
[V: P2]  F,2 [E,G,] [D,G,] | G,3 F, | D, G, _G, =G, | A,2 G,2 | F,2 F, G, | A,3 [D,A,] | G, G, [F,A,] G, | A, =B, C2 | A,2 E, F, | A,2 G, [D,F,] | D, _G, =G, G, | F, A, C2 | C A, [G,C] [F,C] | B,2 G, C | D C D C | A,4|]
[V: P3]  z4 | C,2 B,, A,, | B,, G,, A,, B,, | C,2 C, B,, | A,,2 B,, B,, | A,,3z |z C,z B,, | C,4 | F,,2 G,, A,, | B,,2 C,z | G,, A,, B,, =B,, | C,2 C, B,, | A,,z3 | B,,3 A,, | G,, A,, B,, C, | F,,4|]

